src/svg/skills/opencart.svg

<svg xmlns="http://www.w3.org/2000/svg" height="800" width="1200" clip-rule="evenodd" fill-rule="evenodd" stroke-linejoin="round" stroke-miterlimit="1.4142" viewBox="-59.96544 -19.409525 519.70048 116.45715">
    <path d="M248.385 255.483c0 37.322-11.097 68.759-33.37 94.208-23.243 26.664-53.445 40.05-90.416 40.05-37.069 0-67.173-13.386-90.417-40.05C11.9 324.242.72 292.805.72 255.483c0-37.425 11.18-68.852 33.462-94.209 23.502-26.415 53.705-39.616 90.417-39.616 36.971 0 67.173 13.201 90.416 39.616 22.273 25.357 33.37 56.784 33.37 94.209zm-73.61 0c0-16.905-4.046-31.174-12.146-42.71-9.063-13.113-21.746-19.627-38.03-19.627-16.29 0-28.968 6.514-38.04 19.627-8.184 11.536-12.234 25.805-12.234 42.71 0 16.811 4.05 31.251 12.234 43.134 9.072 13.113 21.75 19.637 38.04 19.637 16.284 0 28.967-6.524 38.03-19.637 8.1-11.883 12.146-26.323 12.146-43.134zm339.76 0c0 34.862-10.038 65.323-30.202 91.383-21.57 28.523-49.391 42.875-83.199 42.875-23.863 0-44.106-6.954-60.659-20.686 0 3.162.352 10.824 1.059 23.073.703 12.312 1.05 22.35 1.05 30.275 0 43.769-13.03 65.597-39.084 65.597-10.658 0-19.369-3.787-26.328-11.273-6.866-7.564-10.302-16.65-10.302-27.377V164.71c0-10.39 3.524-19.374 10.566-26.938 7.041-7.486 15.762-11.263 26.151-11.263 15.665 0 27.114 7.818 34.336 23.414 15.406-18.841 36.449-28.265 63.123-28.265 33.896 0 61.629 14.079 83.287 42.349 20.076 26.152 30.202 56.613 30.202 91.476zm-73.61 0c0-16.905-4.128-31.174-12.229-42.71-9.077-13.113-21.75-19.627-38.04-19.627-16.284 0-28.962 6.514-38.034 19.627-8.101 11.536-12.147 25.805-12.147 42.71 0 16.811 4.046 31.251 12.147 43.134 9.072 13.113 21.75 19.637 38.034 19.637 16.29 0 28.963-6.524 38.04-19.637 8.101-11.883 12.229-26.323 12.229-43.134zm341.429-7.916c0 12.313-2.908 20.765-8.72 25.528-5.807 4.66-14.874 7.037-27.113 7.037H613.663c0 14.088 6.607 24.912 19.812 32.476 10.653 5.91 23.683 8.911 39.089 8.911 11.981 0 26.328-3.977 43.144-11.8 16.817-7.93 27.641-11.81 32.316-11.81 8.535 0 15.752 3.085 21.74 9.424 5.895 6.256 8.896 13.825 8.896 22.545 0 20.15-15.054 35.839-45.174 47.102-22.975 8.447-46.306 12.761-70.16 12.761-38.386 0-69.379-12.761-93.061-38.2-23.688-25.45-35.566-57.409-35.566-96.058 0-36.81 12.322-68.237 36.971-94.463 24.561-26.249 55.12-39.362 91.564-39.362 33.896 0 62.244 12.415 84.965 37.24 22.707 24.834 34.155 54.412 34.155 88.669zm-73.6-18.5c-.356-11.273-5.548-21.482-15.586-30.734-10.039-9.238-20.687-13.81-31.96-13.81-11.619 0-22.452 4.572-32.486 13.81-10.033 9.252-15.059 19.461-15.059 30.734zm320.906 117.174c0 10.751-3.43 19.813-10.29 27.386-6.96 7.491-15.68 11.278-26.331 11.278-25.708 0-38.567-20.428-38.567-61.19 0-7.837.532-20.159 1.586-37.152 1.147-16.909 1.679-29.319 1.679-37.156 0-43.237-14.001-64.884-41.91-64.884-27.913 0-41.821 21.647-41.821 64.884 0 7.837.439 20.247 1.23 37.156.883 16.993 1.322 29.315 1.322 37.152 0 40.762-12.678 61.19-38.03 61.19-10.658 0-19.369-3.787-26.24-11.278-6.954-7.573-10.389-16.635-10.389-27.386V164.632c0-10.673 3.435-19.725 10.389-27.036 6.871-7.398 15.675-11.087 26.328-11.087 17.607 0 29.841 7.818 36.707 23.414 11.888-18.841 32.926-28.265 63.04-28.265 27.909 0 50.098 7.389 66.387 22.092 16.64 15.772 24.91 37.42 24.91 64.982zm230.93-7.823c0 16.636-10.81 29.837-32.48 39.533a130.8152 130.8152 0 01-54.67 11.79c-37.08 0-67.18-13.386-90.42-40.05-22.28-25.449-33.46-56.886-33.46-94.208 0-37.425 11.36-69.023 34.16-94.911 22.8-25.967 52.64-38.914 89.72-38.914 21.39 0 39.79 3.168 55.12 9.424 21.38 8.452 32.03 21.652 32.03 39.616 0 9.062-2.81 17.075-8.45 24.034-5.63 6.866-12.86 10.389-21.65 10.389-6 0-14.63-2.025-25.89-5.978-11.27-4.06-20.24-5.997-26.84-5.997-17.53 0-31.18 6.251-40.95 18.748-9.07 11.273-13.65 25.713-13.65 43.589 0 16.811 4.05 31.08 12.25 42.612 9.05 13.473 21.83 20.159 38.11 20.159 7.23 0 17.08-2.113 29.67-6.437 12.6-4.211 21.67-6.412 27.3-6.412 8.19 0 15.22 3.514 21.22 10.385 5.9 6.954 8.88 14.43 8.88 22.628zm267.56 7.823c0 10.751-3.43 19.813-10.3 27.386-6.95 7.491-15.75 11.278-26.42 11.278-16.02 0-27.46-7.842-34.33-23.424-15.4 18.847-36.45 28.26-63.12 28.26-34.15 0-62.15-14.352-83.82-42.875-19.72-26.06-29.65-56.521-29.65-91.383 0-34.863 9.93-65.324 29.65-91.476 22.02-28.27 49.92-42.349 83.82-42.349 26.67 0 47.72 9.424 63.12 28.265 6.87-15.596 18.31-23.414 34.33-23.414 10.4 0 19.12 3.777 26.17 11.263 7.03 7.564 10.55 16.46 10.55 26.86zm-73.6-90.758c0-16.905-4.04-31.174-12.15-42.71-9.42-13.113-22.1-19.627-38.03-19.627-16.29 0-28.96 6.514-38.04 19.627-8.18 11.536-12.22 25.805-12.22 42.71 0 16.811 3.94 31.251 11.77 43.134 9.35 13.113 22.2 19.637 38.49 19.637 16.28 0 28.96-6.524 38.03-19.637 8.11-11.883 12.15-26.323 12.15-43.134zm261.4-95.707c0 15.758-7.66 26.586-22.98 32.481-14.17 4.763-28.27 9.614-42.35 14.616-15.42 8.813-23.07 25.186-23.07 48.961v90.407c0 10.751-3.53 19.813-10.38 27.386-6.97 7.491-15.77 11.278-26.42 11.278-10.73 0-19.55-3.787-26.4-11.278-6.97-7.573-10.4-16.635-10.4-27.386V164.632c0-10.673 3.43-19.725 10.3-27.036 6.95-7.398 15.77-11.087 26.42-11.087 17.6 0 29.83 7.818 36.71 23.414 15.76-18.841 32.67-28.265 50.89-28.265 10.38 0 19.28 3.778 26.67 11.263 7.3 7.574 11.01 16.553 11.01 26.855zm192.02 3.348c0 16.372-6.43 26.674-19.18 31.085-6.27 2.196-19.4 3.338-39.38 3.338v148.694c0 10.751-3.52 19.813-10.37 27.386-6.97 7.491-15.77 11.278-26.42 11.278-10.38 0-19.2-3.787-26.25-11.278-7.03-7.573-10.55-16.635-10.55-27.386V197.547c-15.15 0-26.15-1.937-33.1-5.714-9.5-5.285-14.2-14.884-14.2-28.709 0-13.816 4.85-23.239 14.62-28.265 6.61-3.699 17.53-5.627 32.68-5.627v-31.52c0-37.063 12.22-55.549 36.8-55.549 24.47 0 36.79 18.486 36.79 55.549v31.52c19.98 0 33.11 1.142 39.38 3.338 12.75 4.402 19.18 14.625 19.18 30.554zm591.31-44.706c-.2-22.599-41.96-32.857-150.06-32.857-253.64 0-317.99-10.834-386.85-83.297 28.97 43.51 44.82 125.119 312.91 121.058 279.71-4.309 109.07 72.122 59.42 158.474 89.54-79.915 164.31-132.59 164.58-163.051zm-356.42 232.059c-.01 21.006-17.29 38.288-38.3 38.293-21.22 0-38.38-17.158-38.38-38.293v-.03c0-21.041 17.31-38.356 38.36-38.356h.02c21.15 0 38.3 17.163 38.3 38.386zm174.67 0c-.01 21.006-17.29 38.288-38.3 38.293-21.2 0-38.37-17.158-38.37-38.293v-.03c0-21.041 17.31-38.356 38.35-38.356h.02c21.15 0 38.3 17.163 38.3 38.386z"
          fill="#3ecaf0" fill-rule="nonzero" transform="matrix(.16 0 0 .15984 -.1152 -.3619)"/>
    <defs id="defs3925">
        <linearGradient gradientTransform="matrix(0 -384.236 384.236 0 1250 386.501)" gradientUnits="userSpaceOnUse" y2="0" x2="1" y1="0" x1="0" id="_Linear1">
    <stop id="stop3920" offset="0" stop-color="#04b6f0" stop-opacity="1"/>
    <stop id="stop3922" offset="1" stop-color="#3ecaf0" stop-opacity="1"/>
</linearGradient>
</defs>
</svg>

<?xml version="1.0" encoding="UTF-8" standalone="no"?>
<!DOCTYPE svg PUBLIC "-//W3C//DTD SVG 1.1//EN" "http://www.w3.org/Graphics/SVG/1.1/DTD/svg11.dtd">
<svg width="100%" height="100%" viewBox="0 0 400 78" version="1.1" xmlns="http://www.w3.org/2000/svg" xmlns:xlink="http://www.w3.org/1999/xlink" xml:space="preserve" xmlns:serif="http://www.serif.com/" style="fill-rule:evenodd;clip-rule:evenodd;stroke-linejoin:round;stroke-miterlimit:1.41421;">
    <g transform="matrix(0.16,0,0,0.159836,0,0)">
        <path d="M248.385,255.483C248.385,292.805 237.288,324.242 215.015,349.691C191.772,376.355 161.57,389.741 124.599,389.741C87.53,389.741 57.426,376.355 34.182,349.691C11.9,324.242 0.72,292.805 0.72,255.483C0.72,218.058 11.9,186.631 34.182,161.274C57.684,134.859 87.887,121.658 124.599,121.658C161.57,121.658 191.772,134.859 215.015,161.274C237.288,186.631 248.385,218.058 248.385,255.483ZM174.775,255.483C174.775,238.578 170.729,224.309 162.629,212.773C153.566,199.66 140.883,193.146 124.599,193.146C108.309,193.146 95.631,199.66 86.559,212.773C78.375,224.309 74.325,238.578 74.325,255.483C74.325,272.294 78.375,286.734 86.559,298.617C95.631,311.73 108.309,318.254 124.599,318.254C140.883,318.254 153.566,311.73 162.629,298.617C170.729,286.734 174.775,272.294 174.775,255.483ZM514.535,255.483C514.535,290.345 504.497,320.806 484.333,346.866C462.763,375.389 434.942,389.741 401.134,389.741C377.271,389.741 357.028,382.787 340.475,369.055C340.475,372.217 340.827,379.879 341.534,392.128C342.237,404.44 342.584,414.478 342.584,422.403C342.584,466.172 329.554,488 303.5,488C292.842,488 284.131,484.213 277.172,476.727C270.306,469.163 266.87,460.077 266.87,449.35L266.87,164.71C266.87,154.32 270.394,145.336 277.436,137.772C284.477,130.286 293.198,126.509 303.587,126.509C319.252,126.509 330.701,134.327 337.923,149.923C353.329,131.082 374.372,121.658 401.046,121.658C434.942,121.658 462.675,135.737 484.333,164.007C504.409,190.159 514.535,220.62 514.535,255.483ZM440.925,255.483C440.925,238.578 436.797,224.309 428.696,212.773C419.619,199.66 406.946,193.146 390.656,193.146C374.372,193.146 361.694,199.66 352.622,212.773C344.521,224.309 340.475,238.578 340.475,255.483C340.475,272.294 344.521,286.734 352.622,298.617C361.694,311.73 374.372,318.254 390.656,318.254C406.946,318.254 419.619,311.73 428.696,298.617C436.797,286.734 440.925,272.294 440.925,255.483ZM782.354,247.567C782.354,259.88 779.446,268.332 773.634,273.095C767.827,277.755 758.76,280.132 746.521,280.132L613.663,280.132C613.663,294.22 620.27,305.044 633.475,312.608C644.128,318.518 657.158,321.519 672.564,321.519C684.545,321.519 698.892,317.542 715.708,309.719C732.525,301.789 743.349,297.909 748.024,297.909C756.559,297.909 763.776,300.994 769.764,307.333C775.659,313.589 778.66,321.158 778.66,329.878C778.66,350.028 763.606,365.717 733.486,376.98C710.511,385.427 687.18,389.741 663.326,389.741C624.94,389.741 593.947,376.98 570.265,351.541C546.577,326.091 534.699,294.132 534.699,255.483C534.699,218.673 547.021,187.246 571.67,161.02C596.231,134.771 626.79,121.658 663.234,121.658C697.13,121.658 725.478,134.073 748.199,158.898C770.906,183.732 782.354,213.31 782.354,247.567ZM708.754,229.067C708.398,217.794 703.206,207.585 693.168,198.333C683.129,189.095 672.481,184.523 661.208,184.523C649.589,184.523 638.756,189.095 628.722,198.333C618.689,207.585 613.663,217.794 613.663,229.067L708.754,229.067ZM1029.66,346.241C1029.66,356.992 1026.23,366.054 1019.37,373.627C1012.41,381.118 1003.69,384.905 993.039,384.905C967.331,384.905 954.472,364.477 954.472,323.715C954.472,315.878 955.004,303.556 956.058,286.563C957.205,269.654 957.737,257.244 957.737,249.407C957.737,206.17 943.736,184.523 915.827,184.523C887.914,184.523 874.006,206.17 874.006,249.407C874.006,257.244 874.445,269.654 875.236,286.563C876.119,303.556 876.558,315.878 876.558,323.715C876.558,364.477 863.88,384.905 838.528,384.905C827.87,384.905 819.159,381.118 812.288,373.627C805.334,366.054 801.899,356.992 801.899,346.241L801.899,164.632C801.899,153.959 805.334,144.907 812.288,137.596C819.159,130.198 827.963,126.509 838.616,126.509C856.223,126.509 868.457,134.327 875.323,149.923C887.211,131.082 908.249,121.658 938.363,121.658C966.272,121.658 988.461,129.047 1004.75,143.75C1021.39,159.522 1029.66,181.17 1029.66,208.732L1029.66,346.241ZM1260.59,338.418C1260.59,355.054 1249.78,368.255 1228.11,377.951C1210.95,385.776 1192.3,389.798 1173.44,389.741C1136.36,389.741 1106.26,376.355 1083.02,349.691C1060.74,324.242 1049.56,292.805 1049.56,255.483C1049.56,218.058 1060.92,186.46 1083.72,160.572C1106.52,134.605 1136.36,121.658 1173.44,121.658C1194.83,121.658 1213.23,124.826 1228.56,131.082C1249.94,139.534 1260.59,152.734 1260.59,170.698C1260.59,179.76 1257.78,187.773 1252.14,194.732C1246.51,201.598 1239.28,205.121 1230.49,205.121C1224.49,205.121 1215.86,203.096 1204.6,199.143C1193.33,195.083 1184.36,193.146 1177.76,193.146C1160.23,193.146 1146.58,199.397 1136.81,211.894C1127.74,223.167 1123.16,237.607 1123.16,255.483C1123.16,272.294 1127.21,286.563 1135.41,298.095C1144.46,311.568 1157.24,318.254 1173.52,318.254C1180.75,318.254 1190.6,316.141 1203.19,311.817C1215.79,307.606 1224.86,305.405 1230.49,305.405C1238.68,305.405 1245.71,308.919 1251.71,315.79C1257.61,322.744 1260.59,330.22 1260.59,338.418ZM1528.15,346.241C1528.15,356.992 1524.72,366.054 1517.85,373.627C1510.9,381.118 1502.1,384.905 1491.43,384.905C1475.41,384.905 1463.97,377.063 1457.1,361.481C1441.7,380.328 1420.65,389.741 1393.98,389.741C1359.83,389.741 1331.83,375.389 1310.16,346.866C1290.44,320.806 1280.51,290.345 1280.51,255.483C1280.51,220.62 1290.44,190.159 1310.16,164.007C1332.18,135.737 1360.08,121.658 1393.98,121.658C1420.65,121.658 1441.7,131.082 1457.1,149.923C1463.97,134.327 1475.41,126.509 1491.43,126.509C1501.83,126.509 1510.55,130.286 1517.6,137.772C1524.63,145.336 1528.15,154.232 1528.15,164.632L1528.15,346.241ZM1454.55,255.483C1454.55,238.578 1450.51,224.309 1442.4,212.773C1432.98,199.66 1420.3,193.146 1404.37,193.146C1388.08,193.146 1375.41,199.66 1366.33,212.773C1358.15,224.309 1354.11,238.578 1354.11,255.483C1354.11,272.294 1358.05,286.734 1365.88,298.617C1375.23,311.73 1388.08,318.254 1404.37,318.254C1420.65,318.254 1433.33,311.73 1442.4,298.617C1450.51,286.734 1454.55,272.294 1454.55,255.483ZM1715.95,159.776C1715.95,175.534 1708.29,186.362 1692.97,192.257C1678.8,197.02 1664.7,201.871 1650.62,206.873C1635.2,215.686 1627.55,232.059 1627.55,255.834L1627.55,346.241C1627.55,356.992 1624.02,366.054 1617.17,373.627C1610.2,381.118 1601.4,384.905 1590.75,384.905C1580.02,384.905 1571.2,381.118 1564.35,373.627C1557.38,366.054 1553.95,356.992 1553.95,346.241L1553.95,164.632C1553.95,153.959 1557.38,144.907 1564.25,137.596C1571.2,130.198 1580.02,126.509 1590.67,126.509C1608.27,126.509 1620.5,134.327 1627.38,149.923C1643.14,131.082 1660.05,121.658 1678.27,121.658C1688.65,121.658 1697.55,125.436 1704.94,132.921C1712.24,140.495 1715.95,149.474 1715.95,159.776ZM1907.97,163.124C1907.97,179.496 1901.54,189.798 1888.79,194.209C1882.52,196.405 1869.39,197.547 1849.41,197.547L1849.41,346.241C1849.41,356.992 1845.89,366.054 1839.04,373.627C1832.07,381.118 1823.27,384.905 1812.62,384.905C1802.24,384.905 1793.42,381.118 1786.37,373.627C1779.34,366.054 1775.82,356.992 1775.82,346.241L1775.82,197.547C1760.67,197.547 1749.67,195.61 1742.72,191.833C1733.22,186.548 1728.52,176.949 1728.52,163.124C1728.52,149.308 1733.37,139.885 1743.14,134.859C1749.75,131.16 1760.67,129.232 1775.82,129.232L1775.82,97.712C1775.82,60.649 1788.04,42.163 1812.62,42.163C1837.09,42.163 1849.41,60.649 1849.41,97.712L1849.41,129.232C1869.39,129.232 1882.52,130.374 1888.79,132.57C1901.54,136.972 1907.97,147.195 1907.97,163.124ZM2499.28,118.418C2499.08,95.819 2457.32,85.561 2349.22,85.561C2095.58,85.561 2031.23,74.727 1962.37,2.264C1991.34,45.774 2007.19,127.383 2275.28,123.322C2554.99,119.013 2384.35,195.444 2334.7,281.796C2424.24,201.881 2499.01,149.206 2499.28,118.745L2499.28,118.418ZM2142.86,350.477C2142.85,371.483 2125.57,388.765 2104.56,388.77C2083.34,388.77 2066.18,371.612 2066.18,350.477C2066.18,350.467 2066.18,350.457 2066.18,350.447C2066.18,329.406 2083.49,312.091 2104.54,312.091C2104.55,312.091 2104.55,312.091 2104.56,312.091C2125.71,312.091 2142.86,329.254 2142.86,350.477ZM2317.53,350.477C2317.52,371.483 2300.24,388.765 2279.23,388.77C2258.03,388.77 2240.86,371.612 2240.86,350.477C2240.86,350.467 2240.86,350.457 2240.86,350.447C2240.86,329.406 2258.17,312.091 2279.21,312.091C2279.22,312.091 2279.22,312.091 2279.23,312.091C2300.38,312.091 2317.53,329.254 2317.53,350.477Z" style="fill:url(#_Linear1);fill-rule:nonzero;"/>
    </g>
    <defs>
        <linearGradient id="_Linear1" x1="0" y1="0" x2="1" y2="0" gradientUnits="userSpaceOnUse" gradientTransform="matrix(2.35277e-14,-384.236,384.236,2.35277e-14,1250,386.501)"><stop offset="0" style="stop-color:rgb(4,182,240);stop-opacity:1"/><stop offset="1" style="stop-color:rgb(62,202,240);stop-opacity:1"/></linearGradient>
    </defs>
</svg>
